X: 1
T: Dew Drops On The Corn
M: 6/8
L: 1/8
R: jig
K: Dmaj
|:A|d2D FED|=c3 ed^c|d=cA GEA|~D3 efe|
d2D FED|=c3 ed^c|d=cA GEA|~D3 D2:|
A|dB/c/d efg|fed =cAG|dcd efg|fdc def|
gbg faf|ecA ABc|d=cA GEA|~D3 D2A|
dcd efg|fed =cAG|dB/c/d efg|fdc def|
gAA fAA|ecA ABc|d=cA GEA|~D3 D2||
